!!!COM: Corelli, Arcangelo
!!!OTL: 
!!!ONM: Opus 5, No. 8
!!!OMV: 4
!!!CDT: 1653/2/17/-1713/1/8/
!!!OCY: Italia
**kern	**kern
*clefC	*clefG
*k[f#]	*k[f#]
*e:	*e:
*M4/4	*M4/4
2..r	2.r
.	6r
8r	.
.	12b
=1	=1
2E	12g
.	12f#
.	12e
.	12g
.	12b
.	12ee
4B	12dd#
.	12cc#
.	12b
4G	6r
.	12ee
=2	=2
4A	12cc
.	12dd
.	12ee
4F#	12a
.	12dd
.	12cc
4G	12b
.	12a
.	12g
4GG	6r
.	12bb
=3	=3
4AA	12aa
.	12bb
.	12gg
4A	12ff#
.	12gg
.	12ee
4B	12dd#
.	12ee
.	12ff#
8G	12b
.	12cc
8A	.
.	12a
=4	=4
4B	12g
.	12b
.	12ee
4BB	12f#
.	12ee
.	12dd#
4E	4e
[4e	6r
.	12gg
=5	=5
4e]	12aa
.	12ff#
.	12aa
4d#	12bb
.	12ff#
.	12bb
4e	12gg
.	12ff#
.	12ee
[4g	6r
.	12bb
=6	=6
4g]	12ccc
.	12aa
.	12ccc
4f#	12ddd
.	12aa
.	12ddd
4g	12bb
.	12aa
.	12gg
[4G	6r
.	12bb
=7	=7
4G]	12aa
.	12bb
.	12aa
2F#	12ddd
.	12ccc
.	12ddd
.	4gg
[4E	6r
.	12ccc
=8	=8
4E]	12ff#
.	12ee
.	12ff#
2D	12bb
.	12aa
.	12bb
.	4ee
[4C	12r
.	12aa
.	12gg
=9	=9
4C]	12ff#
.	12ee
.	12dd
4BB	12gg
.	12aa
.	12bb
4C	12ee
.	12ff#
.	12gg
4D	6d
.	12ff#
=10	=10
4GG	4G
4G	12r
.	12b
.	12cc#
4F#	12dd
.	12ee
.	12dd
4G#	12dd
.	12ee
.	12dd
=11	=11
4A	12cc
.	12b
.	12a
4A	12r
.	12cc
.	12dd#
4G	12ee
.	12ff#
.	12ee
4A	12ee
.	12ff#
.	12ee
=12	=12
4B	12dd#
.	12cc#
.	12b
4G	[3bb
4c	.
.	12bb]
.	12ee
4A	[4aa
=13	=13
4D#	12aa]
.	12gg
.	12ff#
4E	12gg
.	12ff#
.	12ee
4AA	12dd#
.	12b
.	12ee
4BB	12f#
.	12ee
.	12dd#
=14	=14
4E	[3ee
4GG#	.
.	12ee]
.	12dd
4AA	4cc
4BB	6b
.	12d#
=15	=15
2C	12e
.	12f#
.	12g
.	12f#
.	12g
.	12e
4.BB	[3d#
.	12d#]
8r	.
.	12ff#
=16	=16
2r	12ff#
.	12ee
.	12ff#
.	12b
.	12gg
.	12ff#
4e	6gg
.	12b
4E	6e
.	12gg
=17	=17
2r	12gg
.	12ff#
.	12gg
.	12cc
.	12aa
.	12gg
4f#	6aa
.	12a
4F#	6d
.	12aa
=18	=18
2r	12aa
.	12gg
.	12aa
.	12b
.	12bb
.	12aa
4g	6bb
.	12dd
4G	6g
.	12bb
=19	=19
2E	12bb
.	12ccc#
.	12ddd
.	12ccc#
.	12ddd
.	12bb
4F#	4aa#
4D	6r
.	12ff#
=20	=20
4E	12gg#
.	12aa#
.	12bb
4F#	12cc#
.	12bb
.	12aa#
2BB	6bb
.	12f#
.	6B
.	12bb
=21	=21
4E	12gg#
.	12ee
.	12aa
4EE	12b
.	12aa
.	12gg#
2AA	6aa
.	12e
.	6A
.	12aa
=22	=22
4D	12ff#
.	12dd
.	12gg
4DD	12a
.	12gg
.	12ff#
4.GG	6gg
.	12d
.	6G
8G	.
.	12bb
=23	=23
4.F#	12aa
.	12bb
.	12aa
.	6f#
8F#	.
.	12aa
4.E	12gg
.	12aa
.	12gg
.	6e
8E	.
.	12gg
=24	=24
4.AA	12ff#
.	12gg
.	12ee
.	12ff#
.	12gg
8AA	.
.	12ee
4.BB	6dd#
.	12f#
.	6B
8B	.
.	12b
=25	=25
4e	12cc
.	12dd
.	12b
4d	12cc
.	12dd
.	12b
4.c	[3a
.	12a]
8B	.
.	12g
=26	=26
4c	6a
.	12g
4B	6a
.	12g
4.A	[3f
.	12f]
8G	.
.	12e
=27	=27
4A	12f
.	12g
.	12e
4G	12f
.	12g
.	12e
4F#	6d#
.	12b
8G	6e
8A	.
.	12cc
=28	=28
4B	6b
.	12ee
4BB	6B
.	12dd#
4E	6e
.	12b
8GG	6ee
8AA	.
.	12f#
=29	=29
2BB	12g
.	12b
.	12ee
.	6B
.	12dd#
4.EE	[3e
.	12e]
8r	.
.	12r
==	==
*-	*-
!!!RWG: This file only contains pitch and duration data.
!!!RWG: Transposing instruments are not transposed.
!!!RWG: Durations of rests and tied notes may be interpreted.
!!!RWG: Key is interpreted using the Humdrum key tool.
!!!SCA: 
!!!YOR: 
!!!AGN: violin
!!!AFT: stage1
!!!ENC: F. Bennion
!!!END: 1997/04/15
!!!AST: baroque
!!!YEC: Copyright 1994, Center for Computer Assisted Research in the Humanities
!!!YEM: Rights to all derivative electronic formats reserved.
!!!YEM: Refer to licensing agreement for further details.
!!!YEN: United States of America
!!!EED: W.B. Hewlett
!!!KEY: 3727667990
!!!EMD: Converted from MuseData to Humdrum Aug 9, 1999, by Bret Aarden using muse2kern.
!!!VTS: 4062514006
